X: 14538
T: Gan Ainm
R: reel
M: 4/4
K: Eminor
|:EBBA B2AG|FD3 ADFA|EBBA B2AG|BdAd BAGF|
EBBA B2AG|FD3 ADFA|B2AF GFEA|BdcA B2BA:|
|:Beed e2ef|fg3 fedc|Beed e2ef|agfa gfed|
Beed e2ef|fg3 fedc|BEED EFGA|BdcA B2BA:|

